;FLAVOR:Marlin
;TIME:2514
;Filament used: 4.73766m
;Layer height: 0.3
;MINX:80.2
;MINY:90.7
;MINZ:0.3
;MAXX:139.8
;MAXY:129.3
;MAXZ:30.9
;Generated with Cura_SteamEngine 4.4.0
M140 S90
M105
M190 S90
M104 S240
M105
M109 S240
M82 ;absolute extrusion mode
G21 ;metric values
G90 ;absolute positioning
M82 ;set extruder to absolute mode
M107 ;start with the fan off
G28 X0 Y0 ;move X/Y to min endstops
G28 Z0 ;move Z to min endstops
G1 Z15.0 F9000 ;move the platform down 15mm
G92 E0 ;zero the extruded length
G1 F200 E3 ;extrude 3mm of feed stock
G92 E0 ;zero the extruded length again
G1 F9000
;Put printing message on LCD screen
M117 Printing...
G92 E0
G92 E0
G1 F1500 E-6.5
;LAYER_COUNT:103
;LAYER:0
M107
G0 F3600 X82.422 Y92.481 Z0.3
;TYPE:SKIRT
G1 F1500 E0
G1 F1800 X82.784 Y92.173 E0.02371
G1 X83.262 Y91.826 E0.05318
G1 X83.659 Y91.583 E0.0764
G1 X84.21 Y91.305 E0.10719
G1 X84.652 Y91.125 E0.131
G1 X85.202 Y90.948 E0.15983
G1 X85.654 Y90.84 E0.18301
G1 X86.237 Y90.748 E0.21246
G1 X86.692 Y90.712 E0.23523
G1 X86.992 Y90.7 E0.25021
G1 X132.774 Y90.7 E2.53428
G1 X132.972 Y90.705 E2.54416
G1 X133.661 Y90.741 E2.57859
G1 X134.353 Y90.842 E2.61348
G1 X134.822 Y90.955 E2.63754
G1 X135.389 Y91.139 E2.66728
G1 X135.825 Y91.32 E2.69084
G1 X136.367 Y91.598 E2.72123
G1 X136.768 Y91.846 E2.74475
G1 X137.246 Y92.196 E2.77431
G1 X137.602 Y92.502 E2.79773
G1 X138.019 Y92.922 E2.82725
G1 X138.327 Y93.284 E2.85097
G1 X138.674 Y93.762 E2.88044
G1 X138.917 Y94.159 E2.90366
G1 X139.195 Y94.71 E2.93445
G1 X139.375 Y95.152 E2.95826
G1 X139.552 Y95.702 E2.98708
G1 X139.66 Y96.154 E3.01027
G1 X139.752 Y96.734 E3.03957
G1 X139.788 Y97.184 E3.06209
G1 X139.8 Y97.487 E3.07722
G1 X139.8 Y122.375 E4.31888
G1 X139.793 Y122.607 E4.33046
G1 X139.757 Y123.195 E4.35985
G1 X139.659 Y123.849 E4.39285
G1 X139.547 Y124.316 E4.41681
G1 X139.361 Y124.888 E4.44681
G1 X139.179 Y125.326 E4.47048
G1 X138.902 Y125.867 E4.5008
G1 X138.654 Y126.268 E4.52432
G1 X138.304 Y126.746 E4.55388
G1 X137.998 Y127.102 E4.5773
G1 X137.578 Y127.52 E4.60686
G1 X137.217 Y127.827 E4.63051
G1 X136.741 Y128.172 E4.65984
G1 X136.343 Y128.416 E4.68313
G1 X135.79 Y128.695 E4.71403
G1 X135.348 Y128.875 E4.73784
G1 X134.798 Y129.052 E4.76666
G1 X134.346 Y129.16 E4.78985
G1 X133.763 Y129.252 E4.81929
G1 X133.308 Y129.288 E4.84207
G1 X133.008 Y129.3 E4.85704
G1 X87.226 Y129.3 E7.14112
G1 X87.028 Y129.295 E7.151
G1 X86.339 Y129.259 E7.18542
G1 X85.647 Y129.158 E7.22031
G1 X85.178 Y129.045 E7.24438
G1 X84.611 Y128.861 E7.27412
G1 X84.175 Y128.68 E7.29767
G1 X83.633 Y128.402 E7.32806
G1 X83.232 Y128.154 E7.35158
G1 X82.753 Y127.803 E7.38121
G1 X82.395 Y127.495 E7.40477
G1 X81.978 Y127.075 E7.4343
G1 X81.672 Y126.715 E7.45787
G1 X81.326 Y126.238 E7.48727
G1 X81.083 Y125.841 E7.51049
G1 X80.805 Y125.29 E7.54128
G1 X80.625 Y124.848 E7.56509
G1 X80.448 Y124.298 E7.59392
G1 X80.34 Y123.846 E7.6171
G1 X80.248 Y123.266 E7.6464
G1 X80.212 Y122.816 E7.66892
G1 X80.2 Y122.513 E7.68405
G1 X80.2 Y97.625 E8.92572
G1 X80.207 Y97.393 E8.9373
G1 X80.243 Y96.805 E8.96669
G1 X80.341 Y96.151 E8.99968
G1 X80.453 Y95.684 E9.02364
G1 X80.639 Y95.112 E9.05365
G1 X80.821 Y94.674 E9.07731
G1 X81.098 Y94.133 E9.10763
G1 X81.346 Y93.732 E9.13116
G1 X81.696 Y93.254 E9.16071
G1 X82.002 Y92.898 E9.18414
G1 X82.422 Y92.481 E9.21366
G0 F3600 X82.681 Y92.785
G1 F1800 X83.043 Y92.477 E9.23738
G1 X83.471 Y92.167 E9.26374
G1 X83.868 Y91.924 E9.28696
G1 X84.361 Y91.675 E9.31452
G1 X84.803 Y91.495 E9.33833
G1 X85.295 Y91.337 E9.36411
G1 X85.747 Y91.229 E9.38729
G1 X86.269 Y91.147 E9.41366
G1 X86.724 Y91.111 E9.43643
G1 X86.992 Y91.1 E9.44981
G1 X132.774 Y91.1 E11.73388
G1 X132.951 Y91.105 E11.74272
G1 X133.64 Y91.141 E11.77714
G1 X134.259 Y91.231 E11.80834
G1 X134.728 Y91.344 E11.83241
G1 X135.236 Y91.509 E11.85906
G1 X135.672 Y91.69 E11.88261
G1 X136.156 Y91.938 E11.90974
G1 X136.557 Y92.186 E11.93327
G1 X136.985 Y92.5 E11.95975
G1 X137.341 Y92.806 E11.98317
G1 X137.715 Y93.181 E12.00959
G1 X138.023 Y93.543 E12.03331
G1 X138.333 Y93.971 E12.05967
G1 X138.576 Y94.368 E12.08289
G1 X138.825 Y94.861 E12.11045
G1 X139.005 Y95.303 E12.13426
G1 X139.163 Y95.795 E12.16004
G1 X139.271 Y96.247 E12.18322
G1 X139.353 Y96.766 E12.20944
G1 X139.389 Y97.216 E12.23196
G1 X139.4 Y97.487 E12.24549
G1 X139.4 Y122.375 E13.48716
G1 X139.394 Y122.583 E13.49754
G1 X139.358 Y123.171 E13.52693
G1 X139.27 Y123.756 E13.55645
G1 X139.158 Y124.223 E13.58041
G1 X138.992 Y124.735 E13.60726
G1 X138.81 Y125.173 E13.63092
G1 X138.562 Y125.656 E13.65801
G1 X138.314 Y126.057 E13.68153
G1 X138 Y126.485 E13.70802
G1 X137.694 Y126.841 E13.73144
G1 X137.319 Y127.215 E13.75786
G1 X136.958 Y127.522 E13.7815
G1 X136.532 Y127.831 E13.80776
G1 X136.134 Y128.075 E13.83105
G1 X135.639 Y128.325 E13.85871
G1 X135.197 Y128.505 E13.88252
G1 X134.705 Y128.663 E13.9083
G1 X134.253 Y128.771 E13.93149
G1 X133.731 Y128.853 E13.95785
G1 X133.276 Y128.889 E13.98062
G1 X133.008 Y128.9 E13.994
G1 X87.226 Y128.9 E16.27808
G1 X87.049 Y128.895 E16.28691
G1 X86.36 Y128.859 E16.32133
G1 X85.741 Y128.769 E16.35254
G1 X85.272 Y128.656 E16.37661
G1 X84.764 Y128.491 E16.40326
G1 X84.328 Y128.31 E16.42681
G1 X83.844 Y128.062 E16.45394
G1 X83.443 Y127.814 E16.47746
G1 X83.014 Y127.499 E16.50402
G1 X82.656 Y127.191 E16.52758
G1 X82.282 Y126.816 E16.554
G1 X81.976 Y126.456 E16.57757
G1 X81.667 Y126.029 E16.60387
G1 X81.424 Y125.632 E16.62709
G1 X81.175 Y125.139 E16.65464
G1 X80.995 Y124.697 E16.67845
G1 X80.837 Y124.205 E16.70424
G1 X80.729 Y123.753 E16.72742
G1 X80.647 Y123.234 E16.75363
G1 X80.611 Y122.784 E16.77616
G1 X80.6 Y122.513 E16.78969
G1 X80.6 Y97.625 E18.03136
G1 X80.606 Y97.417 E18.04174
G1 X80.642 Y96.829 E18.07113
G1 X80.73 Y96.244 E18.10064
G1 X80.842 Y95.777 E18.1246
G1 X81.008 Y95.265 E18.15145
G1 X81.19 Y94.827 E18.17512
G1 X81.438 Y94.344 E18.20221
G1 X81.686 Y93.943 E18.22573
G1 X82 Y93.515 E18.25221
G1 X82.306 Y93.159 E18.27563
G1 X82.681 Y92.785 E18.30205
G0 F3600 X82.94 Y93.09
G1 F1800 X83.302 Y92.782 E18.32577
G1 X83.68 Y92.508 E18.34906
G1 X84.077 Y92.265 E18.37228
G1 X84.512 Y92.046 E18.39658
G1 X84.954 Y91.866 E18.42039
G1 X85.388 Y91.726 E18.44314
G1 X85.84 Y91.618 E18.46632
G1 X86.3 Y91.545 E18.48956
G1 X86.755 Y91.509 E18.51233
G1 X86.992 Y91.5 E18.52416
G1 X132.774 Y91.5 E20.80824
G1 X132.931 Y91.504 E20.81607
G1 X133.62 Y91.54 E20.85049
G1 X134.166 Y91.619 E20.87802
G1 X134.635 Y91.732 E20.90209
G1 X135.082 Y91.878 E20.92555
G1 X135.518 Y92.059 E20.9491
G1 X135.946 Y92.279 E20.97311
G1 X136.347 Y92.527 E20.99663
G1 X136.725 Y92.803 E21.01998
G1 X137.081 Y93.109 E21.0434
G1 X137.41 Y93.44 E21.06668
G1 X137.718 Y93.802 E21.0904
G1 X137.992 Y94.18 E21.11369
G1 X138.235 Y94.577 E21.13691
G1 X138.454 Y95.012 E21.16121
G1 X138.634 Y95.454 E21.18502
G1 X138.774 Y95.888 E21.20777
G1 X138.882 Y96.34 E21.23095
G1 X138.954 Y96.798 E21.25409
G1 X138.99 Y97.248 E21.27661
G1 X139 Y97.487 E21.28854
G1 X139 Y122.375 E22.53021
G1 X138.994 Y122.558 E22.53934
G1 X138.958 Y123.146 E22.56873
G1 X138.881 Y123.663 E22.59481
G1 X138.769 Y124.13 E22.61877
G1 X138.622 Y124.581 E22.64244
G1 X138.44 Y125.019 E22.6661
G1 X138.221 Y125.446 E22.69004
G1 X137.973 Y125.847 E22.71356
G1 X137.697 Y126.225 E22.73692
G1 X137.391 Y126.581 E22.76034
G1 X137.059 Y126.91 E22.78365
G1 X136.698 Y127.217 E22.8073
G1 X136.323 Y127.49 E22.83044
G1 X135.925 Y127.734 E22.85373
G1 X135.488 Y127.954 E22.87814
G1 X135.046 Y128.134 E22.90195
G1 X134.612 Y128.274 E22.9247
G1 X134.16 Y128.382 E22.94788
G1 X133.7 Y128.455 E22.97112
G1 X133.245 Y128.491 E22.99389
G1 X133.008 Y128.5 E23.00572
G1 X87.226 Y128.5 E25.2898
G1 X87.069 Y128.496 E25.29763
G1 X86.38 Y128.46 E25.33205
G1 X85.834 Y128.381 E25.35958
G1 X85.365 Y128.268 E25.38365
G1 X84.918 Y128.122 E25.40711
G1 X84.482 Y127.941 E25.43066
G1 X84.054 Y127.721 E25.45467
G1 X83.653 Y127.473 E25.47819
G1 X83.274 Y127.196 E25.50161
G1 X82.916 Y126.888 E25.52517
G1 X82.587 Y126.557 E25.54845
G1 X82.281 Y126.197 E25.57203
G1 X82.008 Y125.82 E25.59525
G1 X81.765 Y125.423 E25.61847
G1 X81.546 Y124.988 E25.64277
G1 X81.366 Y124.546 E25.66658
G1 X81.226 Y124.112 E25.68933
G1 X81.118 Y123.66 E25.71251
G1 X81.046 Y123.202 E25.73564
G1 X81.01 Y122.752 E25.75817
G1 X81 Y122.513 E25.7701
G1 X81 Y97.625 E27.01177
G1 X81.006 Y97.442 E27.0209
G1 X81.042 Y96.854 E27.05029
G1 X81.119 Y96.337 E27.07637
G1 X81.231 Y95.87 E27.10033
G1 X81.378 Y95.419 E27.124
G1 X81.56 Y94.981 E27.14766
G1 X81.779 Y94.554 E27.1716
G1 X82.027 Y94.153 E27.19512
G1 X82.303 Y93.775 E27.21847
G1 X82.609 Y93.419 E27.24189
G1 X82.94 Y93.09 E27.26518
G0 F3600 X83.199 Y93.395
G1 F1800 X83.561 Y93.087 E27.28889
G1 X83.889 Y92.849 E27.30911
G1 X84.286 Y92.606 E27.33233
G1 X84.662 Y92.416 E27.35335
G1 X85.104 Y92.236 E27.37716
G1 X85.481 Y92.115 E27.39691
G1 X85.933 Y92.007 E27.4201
G1 X86.332 Y91.944 E27.44025
G1 X86.787 Y91.908 E27.46302
G1 X86.992 Y91.9 E27.47326
G1 X132.774 Y91.9 E29.75733
G1 X132.91 Y91.904 E29.76412
G1 X133.599 Y91.94 E29.79854
G1 X134.072 Y92.008 E29.82238
G1 X134.541 Y92.121 E29.84645
G1 X134.929 Y92.248 E29.86682
G1 X135.365 Y92.429 E29.89037
G1 X135.736 Y92.619 E29.91116
G1 X136.137 Y92.867 E29.93469
G1 X136.464 Y93.106 E29.95489
G1 X136.82 Y93.412 E29.97831
G1 X137.105 Y93.699 E29.99849
G1 X137.413 Y94.061 E30.02221
G1 X137.651 Y94.389 E30.04242
G1 X137.894 Y94.786 E30.06565
G1 X138.084 Y95.162 E30.08666
G1 X138.264 Y95.604 E30.11047
G1 X138.385 Y95.981 E30.13023
G1 X138.493 Y96.433 E30.15341
G1 X138.556 Y96.83 E30.17347
G1 X138.592 Y97.28 E30.19599
G1 X138.6 Y97.487 E30.20632
G1 X138.6 Y122.375 E31.44799
G1 X138.595 Y122.534 E31.45593
G1 X138.559 Y123.122 E31.48532
G1 X138.492 Y123.569 E31.50787
G1 X138.38 Y124.036 E31.53183
G1 X138.253 Y124.428 E31.55238
G1 X138.071 Y124.866 E31.57605
G1 X137.881 Y125.236 E31.5968
G1 X137.633 Y125.637 E31.62032
G1 X137.394 Y125.964 E31.64053
G1 X137.088 Y126.32 E31.66395
G1 X136.8 Y126.606 E31.6842
G1 X136.439 Y126.913 E31.70784
G1 X136.114 Y127.149 E31.72788
G1 X135.716 Y127.393 E31.75117
G1 X135.338 Y127.584 E31.7723
G1 X134.896 Y127.764 E31.79611
G1 X134.519 Y127.885 E31.81586
G1 X134.067 Y127.993 E31.83905
G1 X133.668 Y128.056 E31.8592
G1 X133.213 Y128.092 E31.88197
G1 X133.008 Y128.1 E31.89221
G1 X87.226 Y128.1 E34.17628
G1 X87.09 Y128.096 E34.18307
G1 X86.401 Y128.06 E34.21749
G1 X85.928 Y127.992 E34.24133
G1 X85.459 Y127.879 E34.2654
G1 X85.071 Y127.752 E34.28577
G1 X84.635 Y127.571 E34.30932
G1 X84.264 Y127.381 E34.33011
G1 X83.863 Y127.133 E34.35364
G1 X83.535 Y126.893 E34.37391
G1 X83.177 Y126.585 E34.39747
G1 X82.892 Y126.298 E34.41765
G1 X82.586 Y125.938 E34.44123
G1 X82.349 Y125.611 E34.46137
G1 X82.106 Y125.214 E34.4846
G1 X81.916 Y124.838 E34.50561
G1 X81.736 Y124.396 E34.52942
G1 X81.615 Y124.019 E34.54918
G1 X81.507 Y123.567 E34.57236
G1 X81.444 Y123.17 E34.59242
G1 X81.408 Y122.72 E34.61494
G1 X81.4 Y122.513 E34.62527
G1 X81.4 Y97.625 E35.86694
G1 X81.405 Y97.466 E35.87488
G1 X81.441 Y96.878 E35.90427
G1 X81.508 Y96.431 E35.92682
G1 X81.62 Y95.964 E35.95078
G1 X81.747 Y95.572 E35.97134
G1 X81.929 Y95.134 E35.995
G1 X82.119 Y94.764 E36.01575
G1 X82.367 Y94.363 E36.03927
G1 X82.606 Y94.036 E36.05948
G1 X82.912 Y93.68 E36.0829
G1 X83.199 Y93.395 E36.10308
G0 F3600 X83.458 Y93.699
G1 F1800 X83.82 Y93.391 E36.12679
G1 X84.097 Y93.191 E36.14384
G1 X84.494 Y92.948 E36.16706
G1 X84.813 Y92.786 E36.18491
G1 X85.255 Y92.606 E36.20872
G1 X85.574 Y92.504 E36.22543
G1 X86.026 Y92.396 E36.24861
G1 X86.363 Y92.343 E36.26563
G1 X86.818 Y92.307 E36.2884
G1 X86.992 Y92.3 E36.29709
G1 X132.774 Y92.3 E38.58116
G1 X132.889 Y92.303 E38.5869
G1 X133.578 Y92.339 E38.62132
G1 X133.978 Y92.397 E38.64149
G1 X134.447 Y92.51 E38.66556
G1 X134.776 Y92.617 E38.68282
G1 X135.212 Y92.798 E38.70637
G1 X135.525 Y92.959 E38.72393
G1 X135.926 Y93.207 E38.74745
G1 X136.203 Y93.41 E38.76459
G1 X136.559 Y93.716 E38.78801
G1 X136.801 Y93.958 E38.80508
G1 X137.109 Y94.32 E38.82879
G1 X137.309 Y94.597 E38.84584
G1 X137.552 Y94.994 E38.86906
G1 X137.714 Y95.313 E38.88691
G1 X137.894 Y95.755 E38.91072
G1 X137.996 Y96.074 E38.92743
G1 X138.104 Y96.526 E38.95061
G1 X138.157 Y96.862 E38.96759
G1 X138.193 Y97.312 E38.99011
G1 X138.2 Y97.487 E38.99885
G1 X138.2 Y122.375 E40.24051
G1 X138.196 Y122.509 E40.2472
G1 X138.16 Y123.097 E40.27659
G1 X138.103 Y123.476 E40.29571
G1 X137.991 Y123.943 E40.31967
G1 X137.884 Y124.274 E40.33703
G1 X137.702 Y124.712 E40.36069
G1 X137.541 Y125.025 E40.37825
G1 X137.293 Y125.426 E40.40177
G1 X137.09 Y125.703 E40.41891
G1 X136.784 Y126.059 E40.44233
G1 X136.541 Y126.301 E40.45944
G1 X136.18 Y126.608 E40.48308
G1 X135.905 Y126.808 E40.50004
G1 X135.507 Y127.052 E40.52333
G1 X135.187 Y127.214 E40.54123
G1 X134.745 Y127.394 E40.56504
G1 X134.426 Y127.496 E40.58175
G1 X133.974 Y127.604 E40.60493
G1 X133.637 Y127.657 E40.62195
G1 X133.182 Y127.693 E40.64472
G1 X133.008 Y127.7 E40.65341
G1 X87.226 Y127.7 E42.93748
G1 X87.111 Y127.697 E42.94322
G1 X86.422 Y127.661 E42.97764
G1 X86.022 Y127.603 E42.99781
G1 X85.553 Y127.49 E43.02188
G1 X85.224 Y127.383 E43.03914
G1 X84.788 Y127.202 E43.06269
G1 X84.475 Y127.041 E43.08025
G1 X84.074 Y126.793 E43.10377
G1 X83.796 Y126.59 E43.12095
G1 X83.438 Y126.282 E43.14451
G1 X83.197 Y126.039 E43.16158
G1 X82.891 Y125.679 E43.18515
G1 X82.691 Y125.403 E43.20216
G1 X82.448 Y125.006 E43.22538
G1 X82.286 Y124.687 E43.24323
G1 X82.106 Y124.245 E43.26704
G1 X82.004 Y123.926 E43.28375
G1 X81.896 Y123.474 E43.30693
G1 X81.843 Y123.138 E43.3239
G1 X81.807 Y122.688 E43.34643
G1 X81.8 Y122.513 E43.35517
G1 X81.8 Y97.625 E44.59683
G1 X81.804 Y97.491 E44.60352
G1 X81.84 Y96.903 E44.63291
G1 X81.897 Y96.524 E44.65203
G1 X82.009 Y96.057 E44.67599
G1 X82.116 Y95.726 E44.69335
G1 X82.298 Y95.288 E44.71701
G1 X82.459 Y94.975 E44.73457
G1 X82.707 Y94.574 E44.75809
G1 X82.91 Y94.297 E44.77523
G1 X83.216 Y93.941 E44.79865
G1 X83.458 Y93.699 E44.81572
G0 F3600 X83.718 Y94.004
G1 F1800 X84.08 Y93.696 E44.83943
G1 X84.306 Y93.532 E44.85336
G1 X84.703 Y93.289 E44.87659
G1 X84.964 Y93.157 E44.89118
G1 X85.406 Y92.977 E44.91499
G1 X85.667 Y92.893 E44.92867
G1 X86.119 Y92.785 E44.95185
G1 X86.395 Y92.742 E44.96579
G1 X86.85 Y92.706 E44.98856
G1 X86.992 Y92.7 E44.99565
G1 X132.774 Y92.7 E47.27972
G1 X132.868 Y92.702 E47.28441
G1 X133.557 Y92.738 E47.31884
G1 X133.885 Y92.786 E47.33537
G1 X134.354 Y92.899 E47.35944
G1 X134.622 Y92.987 E47.37352
G1 X135.058 Y93.168 E47.39707
G1 X135.315 Y93.299 E47.41146
G1 X135.716 Y93.547 E47.43498
G1 X135.942 Y93.713 E47.44897
G1 X136.298 Y94.019 E47.47239
G1 X136.496 Y94.218 E47.4864
G1 X136.804 Y94.58 E47.51011
G1 X136.968 Y94.806 E47.52404
G1 X137.211 Y95.203 E47.54726
G1 X137.343 Y95.464 E47.56185
G1 X137.523 Y95.906 E47.58566
G1 X137.607 Y96.167 E47.59934
G1 X137.715 Y96.619 E47.62253
G1 X137.758 Y96.893 E47.63637
G1 X137.794 Y97.343 E47.65889
G1 X137.8 Y97.487 E47.66608
G1 X137.8 Y122.375 E48.90775
G1 X137.797 Y122.485 E48.91324
G1 X137.761 Y123.073 E48.94263
G1 X137.714 Y123.383 E48.95827
G1 X137.602 Y123.85 E48.98223
G1 X137.514 Y124.121 E48.99644
G1 X137.332 Y124.559 E49.02011
G1 X137.201 Y124.815 E49.03445
G1 X136.953 Y125.216 E49.05798
G1 X136.787 Y125.442 E49.07197
G1 X136.481 Y125.798 E49.09539
G1 X136.282 Y125.996 E49.10939
G1 X135.921 Y126.303 E49.13304
G1 X135.696 Y126.467 E49.14693
G1 X135.298 Y126.711 E49.17022
G1 X135.036 Y126.843 E49.18485
G1 X134.594 Y127.023 E49.20866
G1 X134.333 Y127.107 E49.22234
G1 X133.881 Y127.215 E49.24553
G1 X133.605 Y127.258 E49.25946
G1 X133.15 Y127.294 E49.28223
G1 X133.008 Y127.3 E49.28932
G1 X87.226 Y127.3 E51.5734
G1 X87.132 Y127.298 E51.57809
G1 X86.443 Y127.262 E51.61251
G1 X86.115 Y127.214 E51.62905
G1 X85.646 Y127.101 E51.65312
G1 X85.378 Y127.013 E51.66719
G1 X84.942 Y126.832 E51.69074
G1 X84.685 Y126.701 E51.70513
G1 X84.284 Y126.453 E51.72866
G1 X84.057 Y126.287 E51.74269
G1 X83.699 Y125.979 E51.76625
G1 X83.502 Y125.78 E51.78022
G1 X83.196 Y125.42 E51.80379
G1 X83.032 Y125.194 E51.81772
G1 X82.789 Y124.797 E51.84094
G1 X82.657 Y124.536 E51.85553
G1 X82.477 Y124.094 E51.87934
G1 X82.393 Y123.833 E51.89302
G1 X82.285 Y123.381 E51.91621
